public/brands/presonus.svg

<svg xmlns="http://www.w3.org/2000/svg" fill="none" viewBox="0 0 146 24" height="24" width="146">
<g id="logo">
<g id="Group">
<path fill="#1B8EFB" d="M11.2432 23.9849H15.5676C15.1238 20.0057 14.2475 12.1726 13.5875 6.26274C12.8061 12.1689 11.7705 20.0057 11.2432 23.9849ZM29.6823 11.4178C29.652 11.3874 29.6254 11.3571 29.6027 11.323C29.5875 11.304 27.9905 9.28977 26.7311 9.86634C26.2304 10.0939 25.7373 11.7895 25.6273 13.1551L24.8307 23.7535C26.3025 23.5411 27.6074 23.1617 28.3319 22.4676C30.1603 20.8554 30.6837 17.8246 30.6837 15.1921V12.4306L29.6823 11.414V11.4178ZM12.1385 0.0190218C11.5391 0.0190218 9.50972 -0.0644301 7.40825 0.113853C7.93172 4.02092 9.10384 12.7985 9.91939 18.8905C10.7236 12.7985 11.8881 3.97919 12.4116 0.0190218H12.1385ZM25.908 8.06075C27.7515 7.21864 29.5875 8.40594 30.6724 9.53633C30.6079 6.23619 30.0654 3.62642 28.6771 2.03325C27.2812 0.424901 23.9203 0.102474 21.9175 0.0341948C22.2323 3.08019 22.8772 9.36184 23.4803 15.2414C23.5258 14.6155 23.6472 12.9958 23.6472 12.9958C23.7003 12.3168 24.0645 8.89906 25.908 8.05695V8.06075ZM14.881 0.0190218C15.3096 3.85401 16.2541 12.294 16.9407 18.4543C17.8018 12.2523 18.9777 3.7516 19.4974 0.0190218H14.8848H14.881ZM18.1773 23.9849C19.2053 23.9849 20.7643 24.0304 22.3803 23.9621C21.9782 20.0399 21.193 12.4002 20.5898 6.53965C19.7781 12.3965 18.7198 20.0513 18.1773 23.9849ZM3.22807 8.28076L4.71124 0.523526C3.81223 0.747329 3.03082 1.06217 2.51114 1.50598C0.622096 3.05364 0 6.58517 0 10.0219V14.4145C0.345187 14.3045 0.641062 14.1717 0.811759 13.9972C2.1394 12.6658 3.00427 9.41874 3.22807 8.28076ZM5.17402 8.65629C5.13608 8.84595 4.24467 13.3637 2.21527 15.3969C1.67662 15.9394 0.880038 16.258 0.0758653 16.4515C0.269322 18.8943 0.861072 20.4382 1.64628 21.6027C2.94737 23.6321 6.63063 23.9659 8.60313 24.0001C7.99621 19.4709 6.72546 9.96117 5.98198 4.41921C5.59127 6.47896 5.17402 8.66008 5.17402 8.66008V8.65629Z" clip-rule="evenodd" fill-rule="evenodd" id="Vector"></path>
<path fill="#1A1B1B" d="M141.519 6.93785C140.218 6.57369 138.833 6.30058 137.479 6.30058C134.547 6.30058 131.308 7.60546 131.308 11.2736C131.308 15.1844 136.121 15.4272 136.121 17.9421C136.121 19.2167 134.82 19.6718 133.576 19.6718C132.138 19.6718 131.088 19.0953 130.033 18.458L129.229 21.7012C130.583 22.3992 132.078 22.642 133.572 22.642C136.755 22.642 139.994 21.4281 139.994 17.3655C139.994 13.5457 135.181 12.8174 135.181 10.8487C135.181 9.60452 136.565 9.27071 137.669 9.27071C138.773 9.27071 139.744 9.60452 140.715 9.99901L141.519 6.93785ZM131.198 6.66853H127.488L125.967 14.5206C125.496 16.8534 124.556 19.4936 121.98 19.4936C120.789 19.4936 119.958 18.6135 119.958 17.3124C119.958 16.1593 120.178 15.101 120.375 14.0388L121.76 6.67232H118.05L116.556 14.2513C116.362 15.2223 116.085 16.4627 116.085 17.6462C116.085 20.7378 117.94 22.6496 120.736 22.6496C122.34 22.6496 123.751 21.7999 124.776 20.7681L124.582 22.2854H128.208C128.265 21.7999 128.402 20.9805 128.569 20.0436L131.198 6.67232V6.66853ZM100.76 22.2816H104.47L105.991 14.4296C106.462 12.0929 107.402 9.45658 109.978 9.45658C111.169 9.45658 112 10.3366 112 11.6377C112 12.7909 111.78 13.8492 111.583 14.9113L110.198 22.2778H113.908L115.402 14.6989C115.596 13.7278 115.873 12.4874 115.873 11.3039C115.873 8.21239 114.018 6.30058 111.222 6.30058C109.618 6.30058 108.207 7.15027 107.182 8.17825L107.376 6.66094H103.749C103.693 7.14648 103.556 7.96582 103.389 8.90276L100.76 22.274V22.2816ZM94.786 6.30437C89.9989 6.30437 86.346 10.3063 86.346 15.522C86.346 19.9184 88.7813 22.6458 92.8211 22.6458C97.8586 22.6458 101.318 18.6439 101.318 13.155C101.318 8.84965 98.6324 6.30437 94.786 6.30437ZM93.1246 19.4898C90.9927 19.4898 90.2189 17.8852 90.2189 15.8217C90.2189 13.0033 91.6831 9.45278 94.6191 9.45278C96.804 9.45278 97.4413 11.1484 97.4413 13.1816C97.4413 15.8482 96.0036 19.486 93.1246 19.486V19.4898ZM87.0667 1.69555C85.4887 0.997591 83.7438 0.754822 82.0596 0.754822C78.3498 0.754822 74.8638 2.69697 74.8638 7.15027C74.8638 12.7909 81.4527 12.1839 81.4527 16.0038C81.4527 18.2759 79.6281 19.3077 77.7732 19.3077C76.1118 19.3077 74.5338 18.6097 73.0392 17.8549L72.0416 21.4623C73.7865 22.1602 75.6945 22.6458 77.5494 22.6458C81.7827 22.6458 85.4925 20.7681 85.4925 15.5827C85.4925 9.69935 78.9074 9.91177 78.9074 6.5168C78.9074 4.69603 80.7623 4.0929 82.1431 4.0929C83.5238 4.0929 85.0221 4.54809 86.1563 5.18536L87.0705 1.69935L87.0667 1.69555ZM63.2412 12.9426C63.9619 10.7918 64.9596 9.2745 67.2545 9.2745C68.8059 9.2745 69.6063 10.2152 69.6063 11.8805C69.6063 12.2446 69.5798 12.5784 69.5229 12.9426H63.2412ZM72.7889 15.7306C73.0089 14.5775 73.1492 13.4243 73.1492 12.2446C73.1492 8.27308 70.8239 6.30437 67.3114 6.30437C62.6343 6.30437 59.2014 10.9739 59.2014 15.8255C59.2014 20.6771 61.9705 22.6458 66.0634 22.6458C67.5845 22.6458 69.1625 22.2513 70.6001 21.7657L71.0705 18.5528C69.686 19.2508 68.2218 19.6756 66.6969 19.6756C64.1516 19.6756 62.7405 18.6135 62.7405 15.7344H72.7851L72.7889 15.7306ZM48.9634 22.2816H52.6732L54.0008 15.2792C54.4712 12.7643 55.7457 10.1849 58.3744 10.1849C58.8448 10.1849 59.3721 10.2759 59.7855 10.4277L60.5594 6.4561C60.1156 6.33472 59.6186 6.30437 59.1483 6.30437C57.4337 6.30437 55.6054 7.91272 54.9415 9.60831L55.3853 6.66853H51.8424L51.5086 8.75862L48.9634 22.2816ZM42.2986 4.45326H43.5162C45.1777 4.45326 46.7557 4.90845 46.7557 7.05923C46.7557 9.69555 44.5707 10.9094 42.4389 10.9094H41.0544L42.3024 4.45326H42.2986ZM40.3868 14.2475H42.6286C46.9453 14.2475 50.7917 11.7325 50.7917 6.60783C50.7917 1.48313 45.8946 1.11898 42.3251 1.11898H39.0591L34.9624 22.2816H38.8353L40.3868 14.2475Z" clip-rule="evenodd" fill-rule="evenodd" id="Vector_2"></path>
</g>
<path fill="#1A1B1B" d="M142.532 8.45143C142.532 8.23142 142.574 8.02658 142.657 7.84071C142.741 7.65484 142.855 7.49173 142.995 7.35517C143.139 7.21861 143.302 7.1124 143.492 7.03654C143.678 6.96067 143.879 6.91895 144.091 6.91895C144.304 6.91895 144.497 6.95688 144.687 7.03654C144.873 7.1124 145.04 7.21861 145.18 7.35517C145.32 7.49173 145.434 7.65484 145.518 7.84071C145.601 8.02658 145.643 8.23142 145.643 8.45143C145.643 8.67143 145.601 8.88006 145.518 9.06593C145.434 9.2518 145.324 9.41491 145.18 9.55147C145.04 9.68803 144.873 9.79424 144.687 9.87011C144.497 9.94597 144.3 9.9877 144.091 9.9877C143.883 9.9877 143.678 9.94977 143.492 9.87011C143.306 9.79424 143.139 9.68803 142.995 9.55147C142.851 9.41491 142.737 9.2518 142.657 9.06593C142.574 8.88006 142.532 8.67143 142.532 8.45143ZM145.343 8.45143C145.343 8.26935 145.309 8.09865 145.244 7.94313C145.18 7.7876 145.093 7.65105 144.979 7.53725C144.865 7.42345 144.732 7.33241 144.581 7.26793C144.429 7.20344 144.266 7.1693 144.087 7.1693C143.909 7.1693 143.742 7.19965 143.591 7.26793C143.439 7.33241 143.306 7.42345 143.192 7.53725C143.078 7.65105 142.991 7.7876 142.927 7.94313C142.862 8.09865 142.828 8.26935 142.828 8.45143C142.828 8.6335 142.858 8.81179 142.927 8.96731C142.991 9.12283 143.078 9.25939 143.192 9.37319C143.306 9.48699 143.439 9.57803 143.591 9.64251C143.742 9.707 143.909 9.74114 144.087 9.74114C144.266 9.74114 144.429 9.71079 144.581 9.64251C144.732 9.57803 144.865 9.48699 144.979 9.37319C145.093 9.25939 145.18 9.12283 145.244 8.96731C145.309 8.81179 145.343 8.6373 145.343 8.45143ZM143.765 9.33905H143.492V7.56759H144.171C144.383 7.56759 144.543 7.60932 144.645 7.68898C144.747 7.76864 144.801 7.89761 144.801 8.0721C144.801 8.23142 144.755 8.34901 144.668 8.42487C144.581 8.50074 144.471 8.54626 144.338 8.56143L144.842 9.33905H144.543L144.072 8.56902H143.765V9.33905ZM143.765 8.34901H144.087C144.254 8.34901 144.368 8.32625 144.429 8.27693C144.493 8.22762 144.524 8.15555 144.524 8.06072C144.524 7.97727 144.497 7.90899 144.444 7.86347C144.391 7.81795 144.285 7.79519 144.133 7.79519H143.765V8.34901Z" id="Vector_3"></path>
</g>
</svg>

<svg xmlns="http://www.w3.org/2000/svg" width="146" height="24" fill="none"><g fill-rule="evenodd" clip-rule="evenodd"><path fill="#1B8EFB" d="M11.24 23.99h4.33L13.59 6.25zm18.44-12.57-.08-.1c0-.02-1.6-2.02-2.87-1.45-.5.22-1 1.92-1.1 3.29l-.8 10.6c1.47-.22 2.78-.6 3.5-1.3 1.83-1.6 2.35-4.64 2.35-7.27v-2.76zM12.14.02c-.6 0-2.63-.08-4.73.1l2.5 18.77L12.42.02zM25.9 8.06c1.84-.84 3.68.35 4.76 1.48-.06-3.3-.6-5.91-2-7.5C27.29.42 23.93.1 21.93.03l1.56 15.2.17-2.24c.05-.68.42-4.1 2.26-4.94zM14.88.02l2.06 18.43L19.5.02zm3.3 23.97c1.02 0 2.58.04 4.2-.03L20.59 6.54zM3.23 8.27 4.7.52c-.9.23-1.68.54-2.2.99C.62 3.05 0 6.59 0 10.02v4.4q.54-.17.81-.42c1.33-1.33 2.2-4.58 2.42-5.72m1.94.38c-.03.19-.93 4.7-2.96 6.74a4.4 4.4 0 0 1-2.14 1.05c.2 2.44.8 3.99 1.58 5.15 1.3 2.03 4.98 2.37 6.95 2.4L5.98 4.42z"/><path fill="#1A1B1B" d="M141.52 6.94c-1.3-.37-2.69-.64-4.04-.64-2.93 0-6.17 1.3-6.17 4.97 0 3.91 4.81 4.16 4.81 6.67 0 1.28-1.3 1.73-2.54 1.73a6.6 6.6 0 0 1-3.55-1.21l-.8 3.24c1.35.7 2.85.94 4.34.94 3.19 0 6.42-1.21 6.42-5.27 0-3.82-4.8-4.55-4.8-6.52 0-1.24 1.38-1.58 2.48-1.58s2.07.34 3.05.73zm-10.32-.27h-3.71l-1.52 7.85c-.47 2.33-1.41 4.97-3.99 4.97-1.2 0-2.02-.88-2.02-2.18 0-1.15.22-2.2.42-3.27l1.38-7.37h-3.71l-1.5 7.58c-.19.97-.46 2.21-.46 3.4 0 3.09 1.85 5 4.65 5 1.6 0 3.01-.85 4.04-1.88l-.2 1.51h3.63c.06-.48.2-1.3.36-2.24zm-30.44 15.61h3.71l1.52-7.85c.47-2.34 1.41-4.97 3.99-4.97 1.19 0 2.02.88 2.02 2.18 0 1.15-.22 2.21-.42 3.27l-1.38 7.37h3.7l1.5-7.58c.2-.97.47-2.21.47-3.4 0-3.09-1.85-5-4.65-5-1.6 0-3.01.85-4.04 1.88l.2-1.52h-3.63c-.06.49-.2 1.3-.36 2.24zM94.79 6.3c-4.8 0-8.44 4-8.44 9.22 0 4.4 2.43 7.13 6.47 7.13 5.04 0 8.5-4 8.5-9.5 0-4.3-2.69-6.84-6.53-6.84m-1.67 13.18c-2.13 0-2.9-1.6-2.9-3.67 0-2.82 1.46-6.37 4.4-6.37 2.18 0 2.82 1.7 2.82 3.73 0 2.67-1.44 6.3-4.31 6.3zm-6.05-17.8a12 12 0 0 0-5.01-.93c-3.71 0-7.2 1.94-7.2 6.39 0 5.64 6.6 5.03 6.6 8.85 0 2.28-1.83 3.3-3.69 3.3-1.66 0-3.24-.69-4.73-1.45l-1 3.61a15 15 0 0 0 5.5 1.19c4.24 0 7.95-1.88 7.95-7.07 0-5.88-6.58-5.67-6.58-9.06 0-1.82 1.85-2.43 3.23-2.43s2.88.46 4.02 1.1l.91-3.49zM63.24 12.95c.72-2.15 1.72-3.66 4.01-3.66 1.56 0 2.36.93 2.36 2.6q0 .53-.09 1.06zm9.55 2.8q.34-1.74.36-3.5c0-3.97-2.33-5.94-5.84-5.94-4.68 0-8.11 4.67-8.11 9.52 0 4.86 2.77 6.82 6.86 6.82 1.52 0 3.1-.39 4.54-.88l.47-3.2a10 10 0 0 1-4.37 1.12c-2.55 0-3.96-1.07-3.96-3.95zm-23.83 6.54h3.71l1.33-7c.47-2.52 1.75-5.1 4.37-5.1.47 0 1 .1 1.41.25l.78-3.97a6 6 0 0 0-1.41-.16c-1.72 0-3.55 1.61-4.21 3.3l.44-2.93h-3.54l-.33 2.09zM42.3 4.45h1.22c1.66 0 3.24.46 3.24 2.61 0 2.64-2.19 3.85-4.32 3.85h-1.38zm-1.91 9.8h2.24c4.32 0 8.16-2.52 8.16-7.64s-4.9-5.49-8.46-5.49h-3.27l-4.1 21.16h3.88z"/></g><path fill="#1A1B1B" d="M142.53 8.45q0-.33.13-.6.12-.29.34-.5.2-.2.5-.31a1.6 1.6 0 0 1 1.68.32q.21.2.34.48.12.28.12.61a1.5 1.5 0 0 1-.46 1.1 1.6 1.6 0 0 1-2.18 0 1.5 1.5 0 0 1-.47-1.1m2.81 0a1.3 1.3 0 0 0-.36-.91 1.3 1.3 0 0 0-.9-.37 1.3 1.3 0 0 0-.89.37q-.17.17-.26.4a1 1 0 0 0-.1.51q0 .27.1.52a1.2 1.2 0 0 0 .66.67q.23.1.5.1t.5-.1.39-.27.26-.4.1-.52m-1.58.89h-.27V7.57h.68q.32 0 .48.12t.15.38q0 .24-.13.35a.6.6 0 0 1-.33.14l.5.78h-.3l-.47-.77h-.3zm0-1h.33q.25 0 .34-.06.1-.08.1-.22a.3.3 0 0 0-.09-.2q-.08-.06-.3-.06h-.38z"/></svg>
